website/src/static/table/loading.svg

<svg width="144" height="80" viewBox="0 0 144 80" fill="none" xmlns="http://www.w3.org/2000/svg">
<rect width="144" height="80" fill="white"/>
<mask id="path-1-inside-1_768_67717" fill="white">
<path d="M0 0H144V28H0V0Z"/>
</mask>
<path d="M0 0H144V28H0V0Z" fill="white"/>
<path d="M12.5284 10.4062V9.27273H19.2827V10.4062H16.5597V18H15.2472V10.4062H12.5284ZM20.7752 18V9.27273H22.092V13.0653H26.4428V9.27273H27.7638V18H26.4428V14.1946H22.092V18H20.7752Z" fill="#191B23"/>
<path d="M144 27H0V29H144V27Z" fill="#E0E1E9" mask="url(#path-1-inside-1_768_67717)"/>
<path d="M78.48 67.2237C79.3195 68.6777 81.2038 69.1951 82.4731 68.0961C84.8743 66.0171 86.6209 63.2533 87.4548 60.1411C88.5531 56.0422 87.9781 51.6749 85.8564 48C83.7347 44.3251 80.24 41.6435 76.1411 40.5452C73.029 39.7113 69.7621 39.842 66.761 40.882C65.1746 41.4317 64.6805 43.3223 65.52 44.7763C66.3595 46.2303 68.2233 46.6746 69.8629 46.3129C71.4028 45.9732 73.0161 46.0023 74.5675 46.418C77.1088 47.099 79.2755 48.7615 80.591 51.04C81.9064 53.3185 82.2629 56.0262 81.582 58.5675C81.1663 60.1188 80.3848 61.5306 79.3207 62.6943C78.1877 63.9334 77.6405 65.7697 78.48 67.2237Z" fill="#C4C7CF"/>
</svg>

<svg xmlns="http://www.w3.org/2000/svg" width="144" height="80" fill="none"><path fill="#fff" d="M0 0h144v80H0z"/><mask id="a" fill="#fff"><path d="M0 0h144v28H0V0Z"/></mask><path fill="#fff" d="M0 0h144v28H0V0Z"/><path fill="#191B23" d="M12.528 10.406V9.273h6.755v1.133H16.56V18h-1.313v-7.594h-2.719ZM20.775 18V9.273h1.317v3.792h4.35V9.273h1.322V18h-1.321v-3.805h-4.351V18h-1.317Z"/><path fill="#E0E1E9" d="M144 27H0v2h144v-2Z" mask="url(#a)"/><path fill="#C4C7CF" d="M78.48 67.224c.84 1.454 2.724 1.971 3.993.872a16 16 0 0 0-15.712-27.214c-1.586.55-2.08 2.44-1.241 3.894.84 1.454 2.703 1.899 4.343 1.537a9.919 9.919 0 0 1 9.458 16.381c-1.133 1.24-1.68 3.076-.841 4.53Z"/></svg>
